X:686
T:Lugging The Box #2 
C:Joe Buchanan's Scottish Tome - Page 215.1
I:215 1
C:Neil Barron
R:Reel
Z:Carl Allison
L:1/8
M:4/4
K:G
"G"G2 GF "D"GAGE |"G"DEGA "D"BGGD | "Am"EA A2 "E"BA "Am"A2 | "Am"ABAG "D7"EcBA |
"G"G2 GF "D"GAGE | "G"DEGA "B"BG"G7"GD | "C"E2 GE "D"DEGB | "D7"AGAB "G"G2 :|
BA | "G"G2 BA "D"GAGE | "G"DEGA "D"BGcB | "Am"A2 cB ABAG | "D7"EGAB cABA |
"G"G2 BA "D"GAGE | "G"DEGA "D"BGGD | "Em"E2 GE "D"DEGB |  "Am"AGAB "G"G2 G2 :|
W:Errata: Added chords for second part.

